public/flex-ui-assets/player/pause.svg

<?xml version="1.0" encoding="UTF-8"?><svg version="1.1" width="59px" height="59px" viewBox="0 0 59.0 59.0" xmlns="http://www.w3.org/2000/svg" xmlns:xlink="http://www.w3.org/1999/xlink"><defs><clipPath id="i0"><path d="M1920,0 L1920,1080 L0,1080 L0,0 L1920,0 Z"></path></clipPath><clipPath id="i1"><path d="M29.5,0 C45.7924001,0 59,13.2075999 59,29.5 C59,45.7924001 45.7924001,59 29.5,59 C13.2075999,59 0,45.7924001 0,29.5 C0,13.2075999 13.2075999,0 29.5,0 Z"></path></clipPath><clipPath id="i2"><path d="M4.2,0 L4.2,28 L0,28 L0,0 L4.2,0 Z M16.8,0 L16.8,28 L12.6,28 L12.6,0 L16.8,0 Z"></path></clipPath></defs><g transform="translate(-173.0 -112.0)"><g clip-path="url(#i0)"><g transform="translate(173.0 112.0)"><g clip-path="url(#i1)"><polygon points="0,0 59,0 59,59 0,59 0,0" stroke="none" fill="#3C3C3C"></polygon></g><g transform="translate(8.0 9.0)"><g transform="translate(12.600000000000001 7.0)"><g clip-path="url(#i2)"><polygon points="0,0 16.8,0 16.8,28 0,28 0,0" stroke="none" fill="#F7F7F7"></polygon></g></g></g></g></g></g></svg>

<svg width="59" height="59" viewBox="0 0 59 59" xmlns="http://www.w3.org/2000/svg">
    <defs>
        <clipPath id="a">
            <path d="M1920 0v1080H0V0h1920Z"/>
        </clipPath>
        <clipPath id="b">
            <path d="M29.5 0C45.792 0 59 13.208 59 29.5S45.792 59 29.5 59 0 45.792 0 29.5 13.208 0 29.5 0Z"/>
        </clipPath>
        <clipPath id="c">
            <path d="M4.2 0v28H0V0h4.2Zm12.6 0v28h-4.2V0h4.2Z"/>
        </clipPath>
    </defs>
    <g clip-path="url(#a)" transform="translate(-173 -112)">
        <g clip-path="url(#b)" transform="translate(173 112)">
            <path fill="#3C3C3C" d="M0 0h59v59H0V0z"/>
        </g>
        <g clip-path="url(#c)" transform="translate(193.6 128)">
            <path fill="#F7F7F7" d="M0 0h16.8v28H0V0z"/>
        </g>
    </g>
</svg>
